X: 3
T: Homeward Bound
I: RJ R-121 D reel
M: C|
R: reel
K: D
A, |\
"D"D2DE FEDF | A2AF    "Em"ABde |\
"D"f<aed "G"B2dB | "D"AFEF "A"DB,A,B, ||\
"D"D2DE FEDF | ~A2AF "Em"ABde |
"D"f<aed "G"B2dB | "A"AFEF "D"~D2D :: g |\
"D"fdfg afdf | "Em"~e2ed "A"efg2 | "D"fdfg afdf |
"A"edef "D"~d2dg ||\
"D"fdfg afdf | "Em"~e2ed "A"efg2 | "D"f{g}aed "G"B2dB |\
[1 "A"AFEF "D"~D2D :|[2 "A"AFEF "D"DB,A,B, |]
% text 08/29/98

